!!!OTL: 84h. Die Koenigstochter.
!!!ODT: 1889
!!!ARE: Europa, Mitteleuropa, Deutschland; France, Elsass, Bischweiler
!!!SCT: E0084F
!!!TXL: @@DE
!!!YEM: Copyright 1995, estate of Helmut Schaffrath.
**kern	**text
*ICvox	*
*M4/4	*
*met(c)	*
*k[f#]	*
*G:	*
!LO:TX:a:t=Mäßig langſam.	!
!LO:TX:a:t=Aus dem Elſaß (Biſchweiler). 1889.	!
{4d	Es
=1	=1
4.b	war
8a	ein-
4g	-mal
4f#	eine
=2	=2
4a	Köni-
4e	-gin,
4r}	.
{4a	ein
=3	=3
4.a	wun-
8a	-der
8aL	ſchö-
8gJ	.
4a	-nes
=4	=4
2b	Weib,
4r}	.
{4d	die
=5	=5
4.b	hat-
8b	-te
4.dd	ei-
8dd	-ne
=6	=6
4cc	Toch-
4a	-ter,
4r}	.
{4a	ʒum
=7	=7
4.g	Tod
8g	war
4b	ſie
4a	be-
=8	=8
2g	-reit.
4r}	.
==	==
!!!AGN: erzaehlendes Volks - Lied, Sage, Liebe, Leid, Tod, Ballade ?
!!!ONB: ESAC (Essen Associative Code) Database: ERK1
!!!AMT: simple quadruple
!!!AIN: vox
!!!EED: Helmut Schaffrath
!!!EEV: 1.0
!!!GTL: Liebesgeschichten mit tragischem Schluss
!!!URL-scan: https://rosdok.uni-rostock.de/mcrviewer/recordIdentifier/rosdok_ppn745146120/iview2/phys_0365.iview2?x=-209.41713865975294&y=1267.3793195411563&scale=0.554360769283424&rotation=0&layout=singlePageLayout
!!!ENC: Anna Maria Matuszewska
!!!EEV: 2024/11/26
*-	*-
